X:1
T:Lord have mercy upon me
T:Attributed to Thomas Campion (1567-1620)
T:Source: "The art of setting or composing music in parts" by Thomas Campion, second edition by Christopher Simpson, published by John Playford, 1655, page 26.
T:Lord have mercy upon me
T:Hymn
T:Copyright © 
C:Attributed to Thomas Campion (1567-1620)
Z:Source: "The art of setting or composing music in parts"
Z:by Thomas Campion, second edition by Christopher
Z:Simpson, published by John Playford, 1655, page 26.
Z:Copyright ©
%%score [ 1 2 3 4 ]
L:1/8
M:4/4
K:Bb
V:1 treble nm="Alto" snm="A."
V:2 treble nm="Alto" snm="A."
V:3 treble-8 transpose=-12 nm="Tenor" snm="T."
V:4 bass nm="Bass" snm="B."
V:1
 z2 (B2 A4) | z2 B2 B2 BB | G4 G4 | z2 G2 A2 A2 | A4 z2 B2 | B2 c2 A4 | A2 A4 B2 | A2 (A>G) G4 |] %8
w: Lord _|have mer- cy up-|on me,|O hear my|pray'rs both|day and night,|with tears poured|forth to _ thee.|
V:2
 z2 (G2 ^F4) | z2 G2 G2 FF | E4 D4 | z2 =E2 F2 F2 | F4 z2 F2 | G2 G2 ^F4 | ^F2 F4 G2 | G2 ^F2 G4 |] %8
w: Lord _|have mer- cy up-|on me,|O hear my|pray'rs both|day and night,|with tears poured|forth to thee.|
V:3
 z2 (d2 d4) | z2 d2 e2 dd | c4 =B4 | z2 c2 c2 c2 | c4 z2 B2 | e2 e2 d4 | d2 d4 d2 | d2 d2 =B4 |] %8
w: Lord _|have mer- cy up-|on me,|O hear my|pray'rs both|day and night,|with tears poured|forth to thee.|
V:4
 (G,,4 D,4) | B,,4 E,2 B,,B,, | C,4 G,,4 | C,4 F,2 F,2 | F,4 z2 B,,2 | E,2 C,2 D,4 | D,2 D,4 B,,2 | %7
w: Lord _|have mer- cy up-|on me,|O hear my|pray'rs both|day and night,|with tears poured|
 D,2 D,2 G,,4 |] %8
w: forth to thee.|

